!!!COM: Vivaldi, Antonio
!!!OTL: Concerto a violino solo, No. 9
!!!XEN: Violin Concerto No. 9 in D minor
!!!OPR: Il Cimento dell'armonia e dell'inventione
!!!XEN: The Contest of Harmony and Invention
!!!OPS: Opus 8
!!!ONM: No. 9
!!!OMV: Movement 1.
!!!YEC: Copyright 1996, Center for Computer Assisted Research in the Humanities
!!!YEM: Rights to all derivative electronic formats reserved.
!!!YEM: Refer to licensing agreement for important restrictions.
!!!RNB: RV 236 with Violino principale (spine #5).  RV 454 with Oboe (spine #6).
!!!OMD: Allegro
**kern	**kern	**kern	**kern	**kern	**kern	**Bnum
*Icello	*Iviola	*Ivioln	*Ivioln	*Ivioln	*Ioboe	*Icemba
*Icemba	*	*	*	*	*	*
*ICstr	*ICstr	*ICstr	*ICstr	*ICstr	*ICww	*ICklav
*ICklav	*	*	*	*	*	*
!cello	!viola 	!violino 2	!violino 1	!violino principale	!oboe	!continuo
!basso continuo	!	!	!	!	!	!
*clefF4	*clefC3	*clefG2	*clefG2	*clefG2	*clefG2	*
*k[b-]	*k[b-]	*k[b-]	*k[b-]	*k[b-]	*k[b-]	*k[b-]
*d:	*d:	*d:	*d:	*d:	*d:	*d:
*M3/4	*M3/4	*M3/4	*M3/4	*M3/4	*M3/4	*M3/4
*>Selfridge-Field[etc1,S73,etc2]	*>Selfridge-Field[etc1,S73,etc2]	*>Selfridge-Field[etc1,S73,etc2]	*>Selfridge-Field[etc1,S73,etc2]	*>Selfridge-Field[etc1,S73,etc2]	*>Selfridge-Field[etc1,S73,etc2]	*>Selfridge-Field[etc1,S73,etc2]
*>Amsterdam[etc1,A73,etc2]	*>Amsterdam[etc1,A73,etc2]	*>Amsterdam[etc1,A73,etc2]	*>Amsterdam[etc1,A73,etc2]	*>Amsterdam[etc1,A73,etc2]	*>Amsterdam[etc1,A73,etc2]	*>Amsterdam[etc1,A73,etc2]
*>etc1	*>etc1	*>etc1	*>etc1	*>etc1	*>etc1	*>etc1
=1-	=1-	=1-	=1-	=1-	=1-	=1-
8D\L	4a\	8ff\	8dd\	8dd\	8dd\	.
8E\	.	4ff\	4aa\	4aa\	4aa\	.
8F\	4a\	.	.	.	.	6
8G\	.	4ff\	4aa\	4aa\	4aa\	.
8F\	4a\	.	.	.	.	.
8E\J	.	[8ff\	[8aa\	[8aa\	[8aa\	.
=2	=2	=2	=2	=2	=2	=2
8D\L	4a\	8ff\]	8aa\]	8aa\]	8aa\]	.
8E\	.	4ff\	4aa\	4aa\	4aa\	.
8F\	4a\	.	.	.	.	6
8E\	.	[8ff\	[8aa\	[8aa\	[8aa\	.
8F\	4a\	16ff\LL]	16aa\LL]	16aa\LL]	16aa\LL]	6
.	.	16aa\	16ff\	16ff\	16ff\	.
8D\J	.	16gg\	16ee\	16ee\	16ee\	.
.	.	16ff\JJ	16dd\JJ	16dd\JJ	16dd\JJ	.
=3	=3	=3	=3	=3	=3	=3
8AA/L	4a\	8ee\	8cc#\	8cc#\	8cc#\	#
8BBn/	.	4ee\	4aa\	4aa\	4aa\	.
8C#/	4a\	.	.	.	.	6
8D/	.	4ee\	4aa\	4aa\	4aa\	.
8C#/	4a\	.	.	.	.	6
8BB/J	.	[8ee\	[8aa\	[8aa\	[8aa\	.
=4	=4	=4	=4	=4	=4	=4
8AA/L	4a\	8ee\]	8aa\]	8aa\]	8aa\]	#
8BBn/	.	4ee\	4aa\	4aa\	4aa\	.
8C#/	4a\	.	.	.	.	6
8BB/	.	[8ee\	[8aa\	[8aa\	[8aa\	.
8C#/	4a\	16ee\LL]	16aa\LL]	16aa\LL]	16aa\LL]	6
.	.	16ee\	16gg\	16gg\	16gg\	.
8AA/J	.	16dd\	16ff\	16ff\	16ff\	.
.	.	16cc#\JJ	16ee\JJ	16ee\JJ	16ee\JJ	.
=5	=5	=5	=5	=5	=5	=5
8D\L	4a\	8ff\	8dd\	8dd\	8dd\	.
8E\	.	4ff\	4aa\	4aa\	4aa\	.
8F\	4a\	.	.	.	.	6
8G\	.	4ff\	4aa\	4aa\	4aa\	.
8F\	4a\	.	.	.	.	.
8E\J	.	[8ff\	[8aa\	[8aa\	[8aa\	.
=6	=6	=6	=6	=6	=6	=6
8D\L	4a\	8ff\]	8aa\]	8aa\]	8aa\]	.
8E\	.	4ff\	4aa\	4aa\	4aa\	.
8F\	4a\	.	.	.	.	6
8D\	.	[8ff\	[8aa\	[8aa\	[8aa\	.
8F\	4a\	16ff\LL]	16aa\LL]	16aa\LL]	16aa\LL]	.
.	.	16aa\	16ff\	16ff\	16ff\	.
8G\J	.	16gg\	16ee\	16ee\	16ee\	.
.	.	16ff\JJ	16dd\JJ	16dd\JJ	16dd\JJ	.
=7	=7	=7	=7	=7	=7	=7
8A\L	4a\	4ee\	8cc#\L	8cc#\L	8cc#\L	#
8Bn\	.	.	8bn\J	8bn\J	8bn\J	.
8c#\	4a\	4r	4a/	4a/	4a/	.
8B\	.	.	.	.	.	.
8c#\	4a\	4r	4r	4r	4r	.
8A\J	.	.	.	.	.	.
=8	=8	=8	=8	=8	=8	=8
8D\L	4a\	8ff#\	8dd\	8dd\	8dd\	#
8E\	.	4aa\	4ddd\	4ddd\	4ddd\	.
8F#\	4a\	.	.	.	.	6
8E\	.	4ff#\	4aa\	4aa\	4aa\	.
8F#\	4a\	.	.	.	.	.
8D\J	.	8a/	[8dd\	[8dd\	[8dd\	.
=9	=9	=9	=9	=9	=9	=9
8G\L	4g\	8b-\	8dd\]	8dd\]	8dd\]	.
8A\	.	4bb-\	4ddd\	4ddd\	4ddd\	.
8B-\	4g\	.	.	.	.	6
8A\	.	4gg\	4bb-\	4bb-\	4bb-\	.
8B-\	4g\	.	.	.	.	.
8G\J	.	8dd\	[8gg\	[8gg\	[8gg\	.
=10	=10	=10	=10	=10	=10	=10
8C\L	4g\	8ee\	8gg\]	8gg\]	8gg\]	.
8D\	.	4gg\	4ccc\	4ccc\	4ccc\	.
8E\	4g\	.	.	.	.	6
8D\	.	4ee\	4gg\	4gg\	4gg\	.
8E\	4g\	.	.	.	.	.
8C\J	.	8g/	[8cc\	[8cc\	[8cc\	.
=11	=11	=11	=11	=11	=11	=11
8F\L	4f\	8a/	8cc\]	8cc\]	8cc\]	.
8G\	.	4aa\	4ccc\	4ccc\	4ccc\	.
8A\	4f\	.	.	.	.	6
8G\	.	4ff\	4aa\	4aa\	4aa\	.
8A\	4f\	.	.	.	.	.
8F\J	.	8cc\	[8ff\	[8ff\	[8ff\	.
=12	=12	=12	=12	=12	=12	=12
8BB-/L	4f\	8dd\	8ff\]	8ff\]	8ff\]	.
8C/	.	4ff\	4bb-\	4bb-\	4bb-\	.
8D/	4f\	.	.	.	.	6
8C/	.	4dd\	4ff\	4ff\	4ff\	.
8D/	4f\	.	.	.	.	.
8BB-/J	.	8f/	[8b-\	[8b-\	[8b-\	.
=13	=13	=13	=13	=13	=13	=13
8E\L	4e\	8g/	8b-\]	8b-\]	8b-\]	.
8F\	.	4gg\	4bb-\	4bb-\	4bb-\	.
8G\	4e\	.	.	.	.	6
8F\	.	4ee\	4gg\	4gg\	4gg\	.
8G\	4e\	.	.	.	.	.
8E\J	.	8g/	[8ee\	[8ee\	[8ee\	.
=14	=14	=14	=14	=14	=14	=14
8AA/L	4e\	8cc#\	8ee\]	8ee\]	8ee\]	#
8BBn/	.	4ee\	4aa\	4aa\	4aa\	.
8C#/	4e\	.	.	.	.	6
8D/	.	4cc#\	4ee\	4ee\	4ee\	.
8C#/	4e\	.	.	.	.	.
8BB/J	.	[8e/	[8a/	[8a/	[8a/	.
=15	=15	=15	=15	=15	=15	=15
8AA/L	4e\	8e/]	8a/]	8a/]	8a/]	.
8BBn/	.	4ee\	4aa\	4aa\	4aa\	.
8C#/	4e\	.	.	.	.	6
8AA/	.	4cc#\	4gg\	4gg\	4gg\	.
8BB/	4e\	.	.	.	.	.
8C#/J	.	8a/	16ff\LL	16ff\LL	16ff\LL	.
.	.	.	16ee\JJ	16ee\JJ	16ee\JJ	.
=16	=16	=16	=16	=16	=16	=16
4D\	4d\	8a\L	8ff\L	8ff\L	8ff\L	.
.	.	(8dd\	(8dd\	(8dd\	(8dd\	.
4r	4r	8cc#\)	8cc#\)	8cc#\)	8cc#\)	.
.	.	(8ccn\	(8ccn\	(8ccn\	(8ccn\	.
4r	4r	8bn\)	8bn\)	8bn\)	8bn\)	.
.	.	(8b-\J	(8b-\J	(8b-\J	(8b-\J	.
=17	=17	=17	=17	=17	=17	=17
4AA/	4c#\	8a\L)	8a\L)	8a\L)	8a\L)	#
.	.	(8aa\	(8aa\	(8aa\	(8aa\	.
4r	4r	8gg#\)	8gg#\)	8gg#\)	8gg#\)	.
.	.	(8ggn\	(8ggn\	(8ggn\	(8ggn\	.
4r	4r	8ff#\)	8ff#\)	8ff#\)	8ff#\)	.
.	.	(8ffn\J	(8ffn\J	(8ffn\J	(8ffn\J	.
=18	=18	=18	=18	=18	=18	=18
8AA\L	8c#\L	8ee\L)	8ee\L)	8ee\L)	8ee\L)	#
8A\	8e\	16dd\L	16dd\L	16dd\L	16dd\L	.
.	.	16cc#\JJ	16cc#\JJ	16cc#\JJ	16cc#\JJ	.
8F\	8a\	8dd/L	8dd/L	8dd/L	8dd/L	6
8D\	8A\	8f/J	8f/J	8f/J	8f/J	.
8A\	8c#\	8e/L	8e/L	8e/L	8e/L	#
8AA\J	8e\J	8cc#/J	8cc#/J	8cc#/J	8cc#/J	.
=19	=19	=19	=19	=19	=19	=19
4D\	4f\	8dd\L	8dd\L	8dd\L	8dd\L	.
.	.	(8dd\	(8dd\	(8dd\	(8dd\	.
4r	4r	8cc#\)	8cc#\)	8cc#\)	8cc#\)	.
.	.	(8ccn\	(8ccn\	(8ccn\	(8ccn\	.
4r	4r	8bn\)	8bn\)	8bn\)	8bn\)	.
.	.	(8b-\J	(8b-\J	(8b-\J	(8b-\J	.
=20	=20	=20	=20	=20	=20	=20
4AA/	4c#\	8a\L)	8a\L)	8a\L)	8a\L)	#
.	.	(8aa\	(8aa\	(8aa\	(8aa\	.
4r	4r	8gg#\)	8gg#\)	8gg#\)	8gg#\)	.
.	.	(8ggn\	(8ggn\	(8ggn\	(8ggn\	.
4r	4r	8ff#\)	8ff#\)	8ff#\)	8ff#\)	.
.	.	(8ffn\J	(8ffn\J	(8ffn\J	(8ffn\J	.
=21	=21	=21	=21	=21	=21	=21
8AA\L	8c#\L	8ee\L)	8ee\L)	8ee\L)	8ee\L)	#
8A\	8e\	16dd\L	16dd\L	16dd\L	16dd\L	.
.	.	16cc#\JJ	16cc#\JJ	16cc#\JJ	16cc#\JJ	.
8F\	8a\	8dd/L	8dd/L	8dd/L	8dd/L	6
8D\	8A\	8f/J	8f/J	8f/J	8f/J	.
8A\	8c#\	8e/L	8e/L	8e/L	8e/L	#
8AA\J	8e\J	8cc#/J	8cc#/J	8cc#/J	8cc#/J	.
=22	=22	=22	=22	=22	=22	=22
4D\	4f\	4dd\	4dd\	8dd\	8dd\	.
.	.	.	.	4aa\	4aa\	.
4r	4r	4dd\	4dd\	.	.	.
.	.	.	.	4ff\	4ff\	.
4r	4r	4dd\	4dd\	.	.	.
.	.	.	.	16ee\LL	16ee\LL	.
.	.	.	.	16dd\JJ	16dd\JJ	.
=23	=23	=23	=23	=23	=23	=23
2.r	2.r	4cc\	4cc\	8ee\	8ee\	.
.	.	.	.	4gg\	4gg\	.
.	.	4cc\	4cc\	.	.	.
.	.	.	.	4ee\	4ee\	.
.	.	4cc\	4cc\	.	.	.
.	.	.	.	16dd\LL	16dd\LL	.
.	.	.	.	16cc\JJ	16cc\JJ	.
=24	=24	=24	=24	=24	=24	=24
2.r	2.r	4b-\	4b-\	8dd\	8dd\	.
.	.	.	.	4ff\	4ff\	.
.	.	4b-\	4b-\	.	.	.
.	.	.	.	4dd\	4dd\	.
.	.	4g/	4g/	.	.	.
.	.	.	.	16cc\LL	16cc\LL	.
.	.	.	.	16b-\JJ	16b-\JJ	.
=25	=25	=25	=25	=25	=25	=25
2.r	2.r	8a/L	8a/L	4a/	4a/	.
.	.	8b-/	8b-/	.	.	.
.	.	8a/	8a/	4r	4r	.
.	.	8g/	8g/	.	.	.
.	.	8f/	8f/	4r	4r	.
.	.	8e/J	8e/J	.	.	.
=26	=26	=26	=26	=26	=26	=26
2.r	2.r	4d/	4d/	8dd\	8dd\	.
.	.	.	.	4aa\	4aa\	.
.	.	4dd\	4dd\	.	.	.
.	.	.	.	4ff\	4ff\	.
.	.	4dd\	4dd\	.	.	.
.	.	.	.	16ee\LL	16ee\LL	.
.	.	.	.	16dd\JJ	16dd\JJ	.
=27	=27	=27	=27	=27	=27	=27
2.r	2.r	4cc\	4cc\	8ee\	8ee\	.
.	.	.	.	4gg\	4gg\	.
.	.	4cc\	4cc\	.	.	.
.	.	.	.	4ee\	4ee\	.
.	.	4cc\	4cc\	.	.	.
.	.	.	.	16dd\LL	16dd\LL	.
.	.	.	.	16cc\JJ	16cc\JJ	.
=28	=28	=28	=28	=28	=28	=28
2.r	2.r	4b-\	4b-\	8dd\	8dd\	.
.	.	.	.	4ff\	4ff\	.
.	.	4b-\	4b-\	.	.	.
.	.	.	.	4dd\	4dd\	.
.	.	4g/	4g/	.	.	.
.	.	.	.	16cc\LL	16cc\LL	.
.	.	.	.	16b-\JJ	16b-\JJ	.
=29	=29	=29	=29	=29	=29	=29
2.r	2.r	4a/	4a/	16a/LL	16a/LL	.
.	.	.	.	16g/	16g/	.
.	.	.	.	16a/	16a/	.
.	.	.	.	16bn/JJ	16bn/JJ	.
.	.	4a/	4a/	16cc#\LL	16cc#\LL	.
.	.	.	.	16b\	16b\	.
.	.	.	.	16cc#\	16cc#\	.
.	.	.	.	16dd\JJ	16dd\JJ	.
.	.	4c#/	4c#/	16ee\LL	16ee\LL	.
.	.	.	.	16ff\	16ff\	.
.	.	.	.	16gg\	16gg\	.
.	.	.	.	16aa\JJ	16aa\JJ	.
=30	=30	=30	=30	=30	=30	=30
2.r	2.r	4d/	4d/	8ff#\	8ff#\	.
.	.	.	.	4aa\	4aa\	.
.	.	4d/	4d/	.	.	.
.	.	.	.	4ff#\	4ff#\	.
.	.	4cn/	4cn/	.	.	.
.	.	.	.	16ee\LL	16ee\LL	.
.	.	.	.	16dd\JJ	16dd\JJ	.
=31	=31	=31	=31	=31	=31	=31
2.r	2.r	4B-/	4B-/	8gg\	8gg\	.
.	.	.	.	4bb-\	4bb-\	.
.	.	4B-/	4B-/	.	.	.
.	.	.	.	4gg\	4gg\	.
.	.	4B-/	4B-/	.	.	.
.	.	.	.	16aa\LL	16aa\LL	.
.	.	.	.	16bb-\JJ	16bb-\JJ	.
=32	=32	=32	=32	=32	=32	=32
2.r	2.r	4c/	4c/	8ee\	8ee\	.
.	.	.	.	4gg\	4gg\	.
.	.	4c/	4c/	.	.	.
.	.	.	.	4ee\	4ee\	.
.	.	4B-/	4B-/	.	.	.
.	.	.	.	16dd\LL	16dd\LL	.
.	.	.	.	16cc\JJ	16cc\JJ	.
=33	=33	=33	=33	=33	=33	=33
2.r	2.r	4A/	4A/	8ff\	8ff\	.
.	.	.	.	4aa\	4aa\	.
.	.	4f/	4f/	.	.	.
.	.	.	.	4ff\	4ff\	.
.	.	4f/	4f/	.	.	.
.	.	.	.	16gg\LL	16gg\LL	.
.	.	.	.	16aa\JJ	16aa\JJ	.
=34	=34	=34	=34	=34	=34	=34
2.r	2.r	4B-/	4B-/	16b-\LL	16b-\LL	.
.	.	.	.	16a\	16a\	.
.	.	.	.	16b-\	16b-\	.
.	.	.	.	16cc\JJ	16cc\JJ	.
.	.	4B-/	4B-/	16dd\LL	16dd\LL	.
.	.	.	.	16cc\	16cc\	.
.	.	.	.	16dd\	16dd\	.
.	.	.	.	16ee\JJ	16ee\JJ	.
.	.	4B-/	4B-/	16ff\LL	16ff\LL	.
.	.	.	.	16ee\	16ee\	.
.	.	.	.	16ff\	16ff\	.
.	.	.	.	16gg\JJ	16gg\JJ	.
=35	=35	=35	=35	=35	=35	=35
2.r	2.r	4f/	4f/	8aa\	8aa\	.
.	.	.	.	4ff\	4ff\	.
.	.	4f/	4f/	.	.	.
.	.	.	.	4cc\	4cc\	.
.	.	4f/	4f/	.	.	.
.	.	.	.	16b-/LL	16b-/LL	.
.	.	.	.	16a/JJ	16a/JJ	.
=36	=36	=36	=36	=36	=36	=36
2.r	2.r	4B-/	4B-/	16b-\LL	16b-\LL	.
.	.	.	.	16a\	16a\	.
.	.	.	.	16b-\	16b-\	.
.	.	.	.	16cc\JJ	16cc\JJ	.
.	.	4B-/	4B-/	16dd\LL	16dd\LL	.
.	.	.	.	16cc\	16cc\	.
.	.	.	.	16dd\	16dd\	.
.	.	.	.	16ee\JJ	16ee\JJ	.
.	.	4B-/	4B-/	16ff\LL	16ff\LL	.
.	.	.	.	16ee\	16ee\	.
.	.	.	.	16ff\	16ff\	.
.	.	.	.	16gg\JJ	16gg\JJ	.
=37	=37	=37	=37	=37	=37	=37
2.r	2.r	4f/	4f/	8aa\L	8aa\L	.
.	.	.	.	16gg\L	16gg\L	.
.	.	.	.	16ff\JJ	16ff\JJ	.
.	.	4f/	4f/	8aa\L	8aa\L	.
.	.	.	.	16gg\L	16gg\L	.
.	.	.	.	16ff\JJ	16ff\JJ	.
.	.	4c/	4c/	8gg\L	8gg\L	.
.	.	.	.	16ff\L	16ff\L	.
.	.	.	.	16ee\JJ	16ee\JJ	.
=38	=38	=38	=38	=38	=38	=38
8FF/L	4cc\	8aa\	8ff\	8ff\	8ff\	.
8GG/	.	4aa\	4ccc\	4ccc\	4ccc\	.
8AA/	4cc\	.	.	.	.	6
8GG/	.	4aa\	4ccc\	4ccc\	4ccc\	.
8AA/	4cc\	.	.	.	.	.
8GG/J	.	[8aa\	[8ccc\	[8ccc\	[8ccc\	.
=39	=39	=39	=39	=39	=39	=39
8FF/L	4cc\	8aa\]	8ccc\]	8ccc\]	8ccc\]	.
8GG/	.	4aa\	4ccc\	4ccc\	4ccc\	.
8AA/	4cc\	.	.	.	.	6
8GG/	.	[8aa\	[8ccc\	[8ccc\	[8ccc\	.
8FF/	4cc\	16aa\LL]	16ccc\LL]	16ccc\LL]	16ccc\LL]	.
.	.	16aa\	16aa\	16aa\	16aa\	.
8F/J	.	16gg\	16gg\	16gg\	16gg\	.
.	.	16ff\JJ	16ff\JJ	16ff\JJ	16ff\JJ	.
=40	=40	=40	=40	=40	=40	=40
8C\L	4cc\	8gg\	8ee\	8ee\	8ee\	.
8D\	.	4gg\	4ccc\	4ccc\	4ccc\	.
8E\	4cc\	.	.	.	.	6
8D\	.	4gg\	4ccc\	4ccc\	4ccc\	.
8E\	4cc\	.	.	.	.	.
8D\J	.	[8gg\	[8ccc\	[8ccc\	[8ccc\	.
=41	=41	=41	=41	=41	=41	=41
8C\L	4cc\	8gg\]	8ccc\]	8ccc\]	8ccc\]	.
8D\	.	4gg\	4ccc\	4ccc\	4ccc\	.
8E\	4cc\	.	.	.	.	6
8D\	.	[8gg\	[8ccc\	[8ccc\	[8ccc\	.
8E\	4cc\	16gg\LL]	16ccc\LL]	16ccc\LL]	16ccc\LL]	.
.	.	16gg\	16bb-\	16bb-\	16bb-\	.
8C\J	.	16ff\	16aa\	16aa\	16aa\	.
.	.	16ee\JJ	16gg\JJ	16gg\JJ	16gg\JJ	.
=42	=42	=42	=42	=42	=42	=42
4F\	4cc\	8ff\L	8aa\L	8aa\L	8aa\L	.
.	.	(8ff\	(8ff\	(8ff\	(8ff\	.
4r	4r	8ee\)	8ee\)	8ee\)	8ee\)	.
.	.	(8ee-\	(8ee-\	(8ee-\	(8ee-\	.
4r	4r	8dd\)	8dd\)	8dd\)	8dd\)	.
.	.	(8dd-\J	(8dd-\J	(8dd-\J	(8dd-\J	.
=43	=43	=43	=43	=43	=43	=43
4F\	4a\	8cc\L)	8cc\L)	8cc\L)	8cc\L)	.
.	.	(8ccc\	(8ccc\	(8ccc\	(8ccc\	.
4r	4r	8bbn\)	8bbn\)	8bbn\)	8bbn\)	.
.	.	(8bb-\	(8bb-\	(8bb-\	(8bb-\	.
4r	4r	8aa\)	8aa\)	8aa\)	8aa\)	.
.	.	(8aa-\J	(8aa-\J	(8aa-\J	(8aa-\J	.
=44	=44	=44	=44	=44	=44	=44
8c\L	4e\	8gg\L)	8gg\L)	8gg\L)	8gg\L)	.
8B-\	.	16ff\L	16ff\L	16ff\L	16ff\L	.
.	.	16ee\JJ	16ee\JJ	16ee\JJ	16ee\JJ	.
8A\	8cc\L	8ff\L	8ff\L	8ff\L	8ff\L	6
8F\	8a\J	8a\J	8a\J	8a\J	8a\J	.
8c\	8e\L	8g\L	8g\L	8g\L	8g\L	.
8C\J	8cc\J	8eet\J	8eet\J	8eet\J	8eet\J	.
=45	=45	=45	=45	=45	=45	=45
4F\	4a\	4ff\	4ff\	8ff\	8ff\	.
.	.	.	.	4cc\	4cc\	.
4F\	4r	4r	4r	.	.	.
.	.	.	.	4dd\	4dd\	.
4F\	4r	4r	4r	.	.	.
.	.	.	.	8cc\	8cc\	.
=46	=46	=46	=46	=46	=46	=46
4G\	2.r	2.r	2.r	8b-\	8b-\	.
.	.	.	.	4b-\	4b-\	.
4E\	.	.	.	.	.	.
.	.	.	.	4cc\	4cc\	.
4E\	.	.	.	.	.	.
.	.	.	.	8b-\	8b-\	.
=47	=47	=47	=47	=47	=47	=47
4F\	2.r	2.r	2.r	8a/	8a/	.
.	.	.	.	4ff\	4ff\	.
4BB/	.	.	.	.	.	6 5
.	.	.	.	4gg\	4gg\	.
4BB/	.	.	.	.	.	.
.	.	.	.	8ff\	8ff\	.
=48	=48	=48	=48	=48	=48	=48
8C\L	2.r	2.r	2.r	4ffT\	4ffT\	.
8D\	.	.	.	.	.	.
8E\	.	.	.	4ee\	4ee\	6
8D\	.	.	.	.	.	.
8E\	.	.	.	4r	4r	.
8C\J	.	.	.	.	.	.
=49	=49	=49	=49	=49	=49	=49
4F\	4f\	4a/	4cc\	(16cc\LL	(16cc\LL	.
.	.	.	.	16b-\J)	16b-\J)	.
.	.	.	.	8a\J	8a\J	.
4r	4f\	4a/	4cc\	16aa\LL	16aa\LL	.
.	.	.	.	16gg\J	16gg\J	.
.	.	.	.	8ff\J	8ff\J	.
4r	4f\	4a/	4cc\	16ee-\LL	16ee-\LL	.
.	.	.	.	16dd\J	16dd\J	.
.	.	.	.	8cc\J	8cc\J	.
=50	=50	=50	=50	=50	=50	=50
2.r	4B-/	4f/	4dd\	16dd\LL	16dd\LL	.
.	.	.	.	16b-\	16b-\	.
.	.	.	.	16f\	16f\	.
.	.	.	.	16b-\JJ	16b-\JJ	.
.	4B-/	4f/	4dd\	16dd\LL	16dd\LL	.
.	.	.	.	16b-\	16b-\	.
.	.	.	.	16f\	16f\	.
.	.	.	.	16b-\JJ	16b-\JJ	.
.	4B-/	4f/	4dd\	16dd\LL	16dd\LL	.
.	.	.	.	16b-\	16b-\	.
.	.	.	.	16f\	16f\	.
.	.	.	.	16b-\JJ	16b-\JJ	.
=51	=51	=51	=51	=51	=51	=51
2.r	4g\	4bn\	4dd\	16dd\LL	16dd\LL	.
.	.	.	.	16cc\J	16cc\J	.
.	.	.	.	8bn\J	8bn\J	.
.	4g\	4b\	4dd\	16bbn\LL	16bbn\LL	.
.	.	.	.	16aa\J	16aa\J	.
.	.	.	.	8gg\J	8gg\J	.
.	4g\	4b\	4dd\	(16ff\LL	(16ff\LL	.
.	.	.	.	16ee\J)	16ee\J)	.
.	.	.	.	8dd\J	8dd\J	.
=52	=52	=52	=52	=52	=52	=52
2.r	4c\	4g/	4ee\	16ee\LL	16ee\LL	.
.	.	.	.	16cc\	16cc\	.
.	.	.	.	16g\	16g\	.
.	.	.	.	16cc\JJ	16cc\JJ	.
.	4c\	4g/	4ee\	16ee\LL	16ee\LL	.
.	.	.	.	16cc\	16cc\	.
.	.	.	.	16g\	16g\	.
.	.	.	.	16cc\JJ	16cc\JJ	.
.	4c\	4g/	4ee\	16ee\LL	16ee\LL	.
.	.	.	.	16cc\	16cc\	.
.	.	.	.	16g\	16g\	.
.	.	.	.	16cc\JJ	16cc\JJ	.
=53	=53	=53	=53	=53	=53	=53
2.r	4c#\	4a/	4ee\	16ee\LL	16ee\LL	.
.	.	.	.	16dd\J	16dd\J	.
.	.	.	.	8cc#\J	8cc#\J	.
.	4c#\	4a/	4ee\	16gg\LL	16gg\LL	.
.	.	.	.	16ff\J	16ff\J	.
.	.	.	.	8ee\J	8ee\J	.
.	4c#\	4a/	4ee\	16bb-\LL	16bb-\LL	.
.	.	.	.	16aa\J	16aa\J	.
.	.	.	.	8gg\J	8gg\J	.
=54	=54	=54	=54	=54	=54	=54
2.r	4d\	4a/	4ff\	16ff\LL	16ff\LL	.
.	.	.	.	16dd\	16dd\	.
.	.	.	.	16a\	16a\	.
.	.	.	.	16dd\JJ	16dd\JJ	.
.	4d\	4a/	4ff\	16ff\LL	16ff\LL	.
.	.	.	.	16dd\	16dd\	.
.	.	.	.	16a\	16a\	.
.	.	.	.	16dd\JJ	16dd\JJ	.
.	4d\	4dd\	4ff\	16ff\LL	16ff\LL	.
.	.	.	.	16dd\	16dd\	.
.	.	.	.	16a\	16a\	.
.	.	.	.	16dd\JJ	16dd\JJ	.
=55	=55	=55	=55	=55	=55	=55
2.r	4G#/	4dd\	4ff\	16ff\LL	16ff\LL	.
.	.	.	.	16dd\	16dd\	.
.	.	.	.	16g#\	16g#\	.
.	.	.	.	16dd\JJ	16dd\JJ	.
.	4G#/	4dd\	4ff\	16ff\LL	16ff\LL	.
.	.	.	.	16dd\	16dd\	.
.	.	.	.	16g#\	16g#\	.
.	.	.	.	16dd\JJ	16dd\JJ	.
.	4G#/	4dd\	4ff\	16ff\LL	16ff\LL	.
.	.	.	.	16dd\	16dd\	.
.	.	.	.	16g#\	16g#\	.
.	.	.	.	16dd\JJ	16dd\JJ	.
=56	=56	=56	=56	=56	=56	=56
2.r	4G#/	4dd\	4ee\	16ee\LL	16ee\LL	.
.	.	.	.	16bn\	16bn\	.
.	.	.	.	16g#\	16g#\	.
.	.	.	.	16b\JJ	16b\JJ	.
.	4G#/	4dd\	4ee\	16ee\LL	16ee\LL	.
.	.	.	.	16b\	16b\	.
.	.	.	.	16g#\	16g#\	.
.	.	.	.	16b\JJ	16b\JJ	.
.	4G#/	4dd\	4ee\	16ee\LL	16ee\LL	.
.	.	.	.	16b\	16b\	.
.	.	.	.	16g#\	16g#\	.
.	.	.	.	16b\JJ	16b\JJ	.
=57	=57	=57	=57	=57	=57	=57
2.r	4A/	4cc\	4ee\	16ee\LL	16ee\LL	.
.	.	.	.	16cc\	16cc\	.
.	.	.	.	16a\	16a\	.
.	.	.	.	16cc\JJ	16cc\JJ	.
.	4A/	4cc\	4ee\	16ee\LL	16ee\LL	.
.	.	.	.	16cc\	16cc\	.
.	.	.	.	16a\	16a\	.
.	.	.	.	16cc\JJ	16cc\JJ	.
.	4A/	4cc\	4ee\	16ee\LL	16ee\LL	.
.	.	.	.	16cc\	16cc\	.
.	.	.	.	16a\	16a\	.
.	.	.	.	16cc\JJ	16cc\JJ	.
=58	=58	=58	=58	=58	=58	=58
2.r	4A/	4cc\	4ee\	4ee\	4ee\	.
.	4A/	4cc\	4ee\	24r	24r	.
.	.	.	.	(24a\LL	(24a\LL	.
.	.	.	.	24bn\JJ	24bn\JJ	.
.	.	.	.	24cc\LL	24cc\LL	.
.	.	.	.	24b\	24b\	.
.	.	.	.	24a\JJ)	24a\JJ)	.
.	4A/	4cc\	4ee\	24ee\LL	24ee\LL	.
.	.	.	.	(24a\	(24a\	.
.	.	.	.	24b\JJ	24b\JJ	.
.	.	.	.	24cc\LL	24cc\LL	.
.	.	.	.	24b\	24b\	.
.	.	.	.	24a\JJ)	24a\JJ)	.
=59	=59	=59	=59	=59	=59	=59
2.r	4A/	8dd\L	8ff\L	8ff\L	8ff\L	.
.	.	8cc\J	8ee\J	8ee\J	8ee\J	.
.	4A/	4cc\	4ee\	24r	24r	.
.	.	.	.	(24a\LL	(24a\LL	.
.	.	.	.	24bn\JJ	24bn\JJ	.
.	.	.	.	24cc\LL	24cc\LL	.
.	.	.	.	24b\	24b\	.
.	.	.	.	24a\JJ)	24a\JJ)	.
.	4A/	4cc\	4ee\	24ee\LL	24ee\LL	.
.	.	.	.	(24a\	(24a\	.
.	.	.	.	24b\JJ	24b\JJ	.
.	.	.	.	24cc\LL	24cc\LL	.
.	.	.	.	24b\	24b\	.
.	.	.	.	24a\JJ)	24a\JJ)	.
=60	=60	=60	=60	=60	=60	=60
2.r	4e\	4bn\	4gg#\	(8gg#\L	(8gg#\L	.
.	.	.	.	8aa\)	8aa\)	.
.	4r	4r	4r	(8dd#\	(8dd#\	.
.	.	.	.	8ee\)	8ee\)	.
.	4r	4r	4r	(8bn\	(8bn\	.
.	.	.	.	8cc\J)	8cc\J)	.
=61	=61	=61	=61	=61	=61	=61
8E/L	2.r	2.r	2.r	(8g#/L	(8g#/L	.
8C/	.	.	.	8a/J)	8a/J)	6
8D/	.	.	.	4.bnt\	4.bnt\	6 5
8BBn/	.	.	.	.	.	.
8E/	.	.	.	.	.	4
8EE/J	.	.	.	8a/	8a/	#
=62	=62	=62	=62	=62	=62	=62
8AA/L	4e\	8cc\	8a/	8a/	8a/	.
8BBn/	.	4cc\	4ee\	4ee\	4ee\	.
8C/	4e\	.	.	.	.	6
8BB/	.	4cc\	4ee\	4ee\	4ee\	.
8C/	4e\	.	.	.	.	.
8BB/J	.	[8cc\	[8ee\	[8ee\	[8ee\	.
=63	=63	=63	=63	=63	=63	=63
8AA/L	4e\	8cc\]	8ee\]	8ee\]	8ee\]	.
8BBn/	.	4cc\	4ee\	4ee\	4ee\	.
8C/	4e\	.	.	.	.	6
8BB/	.	[8cc\	[8ee\	[8ee\	[8ee\	.
8AA/	4e\	16cc\LL]	16ee\LL]	16ee\LL]	16ee\LL]	.
.	.	16cc\	16cc\	16cc\	16cc\	.
8A/J	.	16bn\	16bn\	16bn\	16bn\	.
.	.	16a\JJ	16a\JJ	16a\JJ	16a\JJ	.
=64	=64	=64	=64	=64	=64	=64
8E\L	4e\	8g#/	8bn\	8bn\	8bn\	#
8F#\	.	4bn\	4ee\	4ee\	4ee\	.
8G#\	4e\	.	.	.	.	6
8F#\	.	4b\	4ee\	4ee\	4ee\	.
8G#\	4e\	.	.	.	.	.
8F#\J	.	[8b\	[8ee\	[8ee\	[8ee\	.
=65	=65	=65	=65	=65	=65	=65
8E\L	4e\	8bn\]	8ee\]	8ee\]	8ee\]	#
8F#\	.	4b\	4ee\	4ee\	4ee\	.
8G#\	4e\	.	.	.	.	6
8F#\	.	[8b\	[8ee\	[8ee\	[8ee\	.
8G#\	4e\	16b/LL]	16ee\LL]	16ee\LL]	16ee\LL]	.
.	.	16b/	16dd\	16dd\	16dd\	.
8E\J	.	16a/	16cc\	16cc\	16cc\	.
.	.	16g#/JJ	16bn\JJ	16bn\JJ	16bn\JJ	.
=66	=66	=66	=66	=66	=66	=66
4AA/	4e\	8a\L	8cc\L	8cc\L	8cc\L	.
.	.	(8aa\	(8aa\	(8aa\	(8aa\	.
4r	4r	8gg#\)	8gg#\)	8gg#\)	8gg#\)	.
.	.	(8ggn\	(8ggn\	(8ggn\	(8ggn\	.
4r	4r	8ff#\)	8ff#\)	8ff#\)	8ff#\)	.
.	.	(8ffn\J	(8ffn\J	(8ffn\J	(8ffn\J	.
=67	=67	=67	=67	=67	=67	=67
4E\	4g#\	8ee\L)	8ee\L)	8ee\L)	8ee\L)	#
.	.	(8ee\	(8ee\	(8ee\	(8ee\	.
4r	4r	8dd#\)	8dd#\)	8dd#\)	8dd#\)	.
.	.	(8ddn\	(8ddn\	(8ddn\	(8ddn\	.
4r	4r	8cc#\)	8cc#\)	8cc#\)	8cc#\)	.
.	.	(8ccn\J	(8ccn\J	(8ccn\J	(8ccn\J	.
=68	=68	=68	=68	=68	=68	=68
8E/L	8g#\L	8bn\L)	8bn\L)	8bn\L)	8bn\L)	#
8D/	8bn\	8gg#\	8gg#\	8gg#\	8gg#\	.
8C/	8e\	8aa\	8aa\	8aa\	8aa\	6
8AA/	8c\	8cc\	8cc\	8cc\	8cc\	.
8E/	8g#\	8b\	8b\	8b\	8b\	#
8EE/J	8b\J	8gg#t\J	8gg#t\J	8gg#t\J	8gg#t\J	.
=69	=69	=69	=69	=69	=69	=69
4AA/	4cc\	4aa\	4aa\	8aa\	8aa\	.
.	.	.	.	4ee\	4ee\	.
4A\	4r	4r	4r	.	.	.
.	.	.	.	4cc\	4cc\	.
4A\	4r	4r	4r	.	.	.
.	.	.	.	16bn/LL	16bn/LL	.
.	.	.	.	16a/JJ	16a/JJ	.
=70	=70	=70	=70	=70	=70	=70
4G#\	2.r	2.r	2.r	8ee\	8ee\	6
.	.	.	.	4bn\	4bn\	.
4G#\	.	.	.	.	.	.
.	.	.	.	4g#/	4g#/	.
4G#\	.	.	.	.	.	.
.	.	.	.	16f#/LL	16f#/LL	.
.	.	.	.	16e/JJ	16e/JJ	.
=71	=71	=71	=71	=71	=71	=71
4A\	2.r	2.r	2.r	16a/LL	16a/LL	.
.	.	.	.	16g#/	16g#/	.
.	.	.	.	16a/	16a/	.
.	.	.	.	16bn/JJ	16bn/JJ	.
*strophe	*	*	*	*	*	*
*^	*	*	*	*	*	*
*S/S	*S/A	*	*	*	*	*	*
8AA/L	4AA/	.	.	.	16cc\LL	16cc\LL	.
.	.	.	.	.	16b\	16b\	.
8BBn/	.	.	.	.	16cc\	16cc\	.
.	.	.	.	.	16dd\JJ	16dd\JJ	.
8C/	4D/	.	.	.	16ee\LL	16ee\LL	6
.	.	.	.	.	16dd\	16dd\	.
8D/J	.	.	.	.	16ee\	16ee\	.
.	.	.	.	.	16ff\JJ	16ff\JJ	.
*S/fin	*S/fin	*	*	*	*	*	*
*v	*v	*	*	*	*	*	*
*S-	*	*	*	*	*	*
=72	=72	=72	=72	=72	=72	=72
4E\	2.r	2.r	2.r	4g#/	4g#/	#
4E\	.	.	.	8r	8r	.
.	.	.	.	8g#/	8g#/	.
4E\	.	.	.	8bn\L	8bn\L	.
.	.	.	.	8dd\J	8dd\J	.
*>S73	*>S73	*>S73	*>S73	*>S73	*>S73	*>S73
!! Selfridge-Field edition.
=73	=73	=73	=73	=73	=73	=73
4AA/	2.r	2.r	2.r	8cc#\L	8cc#\L	#
.	.	.	.	16ee\L	16ee\L	.
.	.	.	.	16dd\JJ	16dd\JJ	.
4AA/	.	.	.	8cc#\L	8cc#\L	.
.	.	.	.	16bn\L	16bn\L	.
.	.	.	.	16a\JJ	16a\JJ	.
4AA/	.	.	.	8gg\L	8gg\L	.
.	.	.	.	16ff\L	16ff\L	.
.	.	.	.	16ee\JJ	16ee\JJ	.
*>A73	*>A73	*>A73	*>A73	*>A73	*>A73	*>A73
!! Amsterdam print.
=73	=73	=73	=73	=73	=73	=73
4AA/	2.r	2.r	2.r	8cc#\L	8cc#\L	#
.	.	.	.	16ee\L	16ee\L	.
.	.	.	.	16dd\JJ	16dd\JJ	.
4AA/	.	.	.	8cc#\L	8cc#\L	.
.	.	.	.	16b-x\L	16b-x\L	.
.	.	.	.	16a\JJ	16a\JJ	.
4AA/	.	.	.	8gg\L	8gg\L	.
.	.	.	.	16ff\L	16ff\L	.
.	.	.	.	16ee\JJ	16ee\JJ	.
*>etc2	*>etc2	*>etc2	*>etc2	*>etc2	*>etc2	*>etc2
=74	=74	=74	=74	=74	=74	=74
4D\	2.r	2.r	2.r	8ff\	8ff\	.
.	.	.	.	4aa\	4aa\	.
4d\	.	.	.	.	.	.
.	.	.	.	4ff\	4ff\	.
4d\	.	.	.	.	.	.
.	.	.	.	16ee\LL	16ee\LL	.
.	.	.	.	16dd\JJ	16dd\JJ	.
=75	=75	=75	=75	=75	=75	=75
4c\	2.r	2.r	2.r	8ee\	8ee\	.
.	.	.	.	4gg\	4gg\	.
4c\	.	.	.	.	.	.
.	.	.	.	4ee\	4ee\	.
4c\	.	.	.	.	.	.
.	.	.	.	16dd\LL	16dd\LL	.
.	.	.	.	16cc\JJ	16cc\JJ	.
=76	=76	=76	=76	=76	=76	=76
4B-\	2.r	2.r	2.r	8dd\	8dd\	6
.	.	.	.	4ff\	4ff\	5
4B-\	.	.	.	.	.	.
.	.	.	.	4dd\	4dd\	.
4G\	.	.	.	.	.	7 5
.	.	.	.	16cc\LL	16cc\LL	6
.	.	.	.	16b-\JJ	16b-\JJ	.
=77	=77	=77	=77	=77	=77	=77
4A\	2.r	2.r	2.r	16a/LL	16a/LL	#
.	.	.	.	16g/	16g/	.
.	.	.	.	16a/	16a/	.
.	.	.	.	16bn/JJ	16bn/JJ	.
4A\	.	.	.	16cc#\LL	16cc#\LL	.
.	.	.	.	16b\	16b\	.
.	.	.	.	16cc#\	16cc#\	.
.	.	.	.	16dd\JJ	16dd\JJ	.
4A\	.	.	.	16ee\LL	16ee\LL	.
.	.	.	.	16dd\	16dd\	.
.	.	.	.	16ee\	16ee\	.
.	.	.	.	16ff\JJ	16ff\JJ	.
=78	=78	=78	=78	=78	=78	=78
4C#/	2.r	2.r	2.r	16gg\LL	16gg\LL	6
.	.	.	.	16ff\	16ff\	.
.	.	.	.	16gg\	16gg\	.
.	.	.	.	16aa\JJ	16aa\JJ	.
4C#/	.	.	.	16bb-\LL	16bb-\LL	.
.	.	.	.	16aa\	16aa\	.
.	.	.	.	16bb-\	16bb-\	.
.	.	.	.	16gg\JJ	16gg\JJ	.
4C#/	.	.	.	16aa\LL	16aa\LL	.
.	.	.	.	16gg\	16gg\	.
.	.	.	.	16aa\	16aa\	.
.	.	.	.	16ee\JJ	16ee\JJ	.
=79	=79	=79	=79	=79	=79	=79
8D\L	4a\	8ff\	8dd\	8ff\	8ff\	.
8E\	.	4aa\	4ddd\	4ddd\	4ddd\	.
8F\	4a\	.	.	.	.	6
8E\	.	4ff\	4aa\	4aa\	4aa\	.
8F\	4a\	.	.	.	.	.
8D\J	.	8a/	[8dd\	[8dd\	[8dd\	.
=80	=80	=80	=80	=80	=80	=80
8G\L	4g\	8b-\	8dd\]	8dd\]	8dd\]	.
8A\	.	4bb-\	4ddd\	4ddd\	4ddd\	.
8B-\	4g\	.	.	.	.	6
8A\	.	4gg\	4bb-\	4bb-\	4bb-\	.
8B-\	4g\	.	.	.	.	.
8G\J	.	8dd\	[8gg\	[8gg\	[8gg\	.
=81	=81	=81	=81	=81	=81	=81
8C\L	4g\	8ee\	8gg\]	8gg\]	8gg\]	.
8D\	.	4gg\	4ccc\	4ccc\	4ccc\	.
8E\	4g\	.	.	.	.	6
8D\	.	4ee\	4gg\	4gg\	4gg\	.
8E\	4g\	.	.	.	.	.
8C\J	.	8g/	[8cc\	[8cc\	[8cc\	.
=82	=82	=82	=82	=82	=82	=82
8F\L	4f\	8a/	8cc\]	8cc\]	8cc\]	.
8G\	.	4aa\	4ccc\	4ccc\	4ccc\	.
8A\	4f\	.	.	.	.	6
8G\	.	4ff\	4aa\	4aa\	4aa\	.
8A\	4f\	.	.	.	.	.
8F\J	.	8cc\	[8ff\	[8ff\	[8ff\	.
=83	=83	=83	=83	=83	=83	=83
8BB-/L	4f\	8dd\	8ff\]	8ff\]	8ff\]	.
8C/	.	4ff\	4bb-\	4bb-\	4bb-\	.
8D/	4f\	.	.	.	.	6
8C/	.	4dd\	4ff\	4ff\	4ff\	.
8D/	4f\	.	.	.	.	.
8BB-/J	.	8f/	[8b-\	[8b-\	[8b-\	.
=84	=84	=84	=84	=84	=84	=84
8E\L	4e\	8g/	8b-\]	8b-\]	8b-\]	.
8F\	.	4gg\	4bb-\	4bb-\	4bb-\	.
8G\	4e\	.	.	.	.	.
8F\	.	4ee\	4gg\	4gg\	4gg\	.
8G\	4e\	.	.	.	.	.
8E\J	.	8g/	[8ee\	[8ee\	[8ee\	.
=85	=85	=85	=85	=85	=85	=85
8AA/L	4e\	8cc#\	8ee\]	8ee\]	8ee\]	#
8BBn/	.	4ee\	4aa\	4aa\	4aa\	.
8C#/	4e\	.	.	.	.	6
8BB/	.	4cc#\	4ee\	4ee\	4ee\	.
8C#/	4e\	.	.	.	.	.
8BB/J	.	[8e/	[8a/	[8a/	[8a/	.
=86	=86	=86	=86	=86	=86	=86
8AA/L	4e\	8e/]	8a/]	8a/]	8a/]	#
8BBn/	.	4ee\	4aa\	4aa\	4aa\	.
8C#/	4e\	.	.	.	.	6
8AA/	.	4cc#\	4gg\	4gg\	4gg\	.
8BB/	4e\	.	.	.	.	.
8C#/J	.	8a/	16ff\LL	16ff\LL	16ff\LL	.
.	.	.	16ee\JJ	16ee\JJ	16ee\JJ	.
=87	=87	=87	=87	=87	=87	=87
4D\	4d\	4a/	4ff\	8ff\L	8ff\L	.
.	.	.	.	[8aa\J	[8aa\J	.
4r	4r	4dd\	4dd\	16aa\LL]	16aa\LL]	.
.	.	.	.	16gg\	16gg\	.
.	.	.	.	16ff\	16ff\	.
.	.	.	.	16ee\JJ	16ee\JJ	.
4r	4r	4dd\	4dd\	16dd\LL	16dd\LL	.
.	.	.	.	16ff\	16ff\	.
.	.	.	.	16ee\	16ee\	.
.	.	.	.	16dd\JJ	16dd\JJ	.
=88	=88	=88	=88	=88	=88	=88
2.r	2.r	4cc\	4cc\	8ee\L	8ee\L	.
.	.	.	.	[8gg\J	[8gg\J	.
.	.	4cc\	4cc\	16gg\LL]	16gg\LL]	.
.	.	.	.	16ff\	16ff\	.
.	.	.	.	16ee\	16ee\	.
.	.	.	.	16dd\JJ	16dd\JJ	.
.	.	4cc\	4cc\	16cc\LL	16cc\LL	.
.	.	.	.	16ee\	16ee\	.
.	.	.	.	16dd\	16dd\	.
.	.	.	.	16cc\JJ	16cc\JJ	.
=89	=89	=89	=89	=89	=89	=89
2.r	2.r	4b-\	4b-\	8dd\L	8dd\L	.
.	.	.	.	[8ff\J	[8ff\J	.
.	.	4b-\	4b-\	16ff\LL]	16ff\LL]	.
.	.	.	.	16ee\	16ee\	.
.	.	.	.	16dd\	16dd\	.
.	.	.	.	16cc\JJ	16cc\JJ	.
.	.	4b-\	4b-\	16b-\LL	16b-\LL	.
.	.	.	.	16dd\	16dd\	.
.	.	.	.	16cc\	16cc\	.
.	.	.	.	16b-\JJ	16b-\JJ	.
=90	=90	=90	=90	=90	=90	=90
2.r	2.r	8a/L	8a/L	4a/	4a/	.
.	.	8b-/	8b-/	.	.	.
.	.	8a/	8a/	16r	16r	.
.	.	.	.	16a\LL	16a\LL	.
.	.	8g/	8g/	16bn\	16bn\	.
.	.	.	.	16cc#\JJ	16cc#\JJ	.
.	.	8f/	8f/	16dd\LL	16dd\LL	.
.	.	.	.	16ee\	16ee\	.
.	.	8e/J	8e/J	16ff\	16ff\	.
.	.	.	.	16gg\JJ	16gg\JJ	.
=91	=91	=91	=91	=91	=91	=91
2.r	2.r	8d/L	8d/L	(8aa\L	16aa\LL	.
.	.	.	.	.	16ff\	.
.	.	8f/	8f/	8bb-\	16dd\	.
.	.	.	.	.	16ff\JJ	.
.	.	8d/	8d/	8aa\	16aa\LL	.
.	.	.	.	.	16ff\	.
.	.	8f/	8f/	8gg\)	16dd\	.
.	.	.	.	.	16ff\JJ	.
.	.	8d/	8d/	8ff\	16aa\LL	.
.	.	.	.	.	16ff\	.
.	.	8f/J	8f/J	8ee\J	16dd\	.
.	.	.	.	.	16ff\JJ	.
=92	=92	=92	=92	=92	=92	=92
8G\L	2.r	4B-/	4B-/	16dd\LL	16dd\LL	.
.	.	.	.	16b-\	16b-\	.
8B-\	.	.	.	16g\	16g\	.
.	.	.	.	16b-\JJ	16b-\JJ	.
8G\	.	4r	4r	16dd\LL	16dd\LL	.
.	.	.	.	16b-\	16b-\	.
8B-\	.	.	.	16g\	16g\	.
.	.	.	.	16b-\JJ	16b-\JJ	.
8G\	.	4r	4r	16dd\LL	16dd\LL	.
.	.	.	.	16b-\	16b-\	.
8B-\J	.	.	.	16g\	16g\	.
.	.	.	.	16b-\JJ	16dd\JJ	.
=93	=93	=93	=93	=93	=93	=93
4E\	2.r	8c/L	8c/L	(8gg\L	16gg\LL	6
.	.	.	.	.	16ee\	.
.	.	8e/	8e/	8aa\	16cc\	.
.	.	.	.	.	16ee\JJ	.
4r	.	8c/	8c/	8gg\	16gg\LL	.
.	.	.	.	.	16ee\	.
.	.	8e/	8e/	8ff\)	16cc\	.
.	.	.	.	.	16ee\JJ	.
4r	.	8c/	8c/	8ee\	16gg\LL	.
.	.	.	.	.	16ee\	.
.	.	8e/J	8e/J	8dd\J	16cc\	.
.	.	.	.	.	16ee\JJ	.
=94	=94	=94	=94	=94	=94	=94
8F\L	2.r	4A/	4A/	16cc/LL	16cc/LL	.
.	.	.	.	16a/	16a/	.
8A\	.	.	.	16f/	16f/	.
.	.	.	.	16a/JJ	16a/JJ	.
8F\	.	4r	4r	16cc/LL	16cc/LL	.
.	.	.	.	16a/	16a/	.
8A\	.	.	.	16f/	16f/	.
.	.	.	.	16a/JJ	16a/JJ	.
8F\	.	4r	4r	16cc/LL	16cc/LL	.
.	.	.	.	16a/	16a/	.
8A\J	.	.	.	16f/	16f/	.
.	.	.	.	16a/JJ	16cc/JJ	.
=95	=95	=95	=95	=95	=95	=95
4D\	2.r	8B-/L	8B-/L	(8ff\L	16ff\LL	.
.	.	.	.	.	16dd\	.
.	.	8d/	8d/	8gg\	16b-\	.
.	.	.	.	.	16dd\JJ	.
4r	.	8B-/	8B-/	8ff\	16ff\LL	.
.	.	.	.	.	16dd\	.
.	.	8d/	8d/	8ee\)	16b-\	.
.	.	.	.	.	16dd\JJ	.
4r	.	8B-/	8B-/	8dd\	16ff\LL	.
.	.	.	.	.	16dd\	.
.	.	8d/J	8d/J	8cc\J	16b-\	.
.	.	.	.	.	16dd\JJ	.
=96	=96	=96	=96	=96	=96	=96
8E\L	2.r	4G/	4G/	(8b-\L	16b-/LL	.
.	.	.	.	.	16g/	.
8G\	.	.	.	8ee\)	16e/	.
.	.	.	.	.	16g/JJ	.
8E\	.	4r	4r	(8ee\	16b-/LL	.
.	.	.	.	.	16g/	.
8G\	.	.	.	8bb-\)	16e/	.
.	.	.	.	.	16g/JJ	.
8E\	.	4r	4r	(8gg\	16b-/LL	.
.	.	.	.	.	16g/	.
8G\J	.	.	.	8ee\J)	16e/	.
.	.	.	.	.	16ee/JJ	.
=97	=97	=97	=97	=97	=97	=97
4C#/	2.r	8A/L	8A/L	(8cc#\L	16ee\LL	6
.	.	.	.	.	16cc#\	.
.	.	8c#/	8c#/	8ee\)	16a\	.
.	.	.	.	.	16cc#\JJ	.
4r	.	8A/	8A/	(8aa\	16ee\LL	.
.	.	.	.	.	16cc#\	.
.	.	8c#/	8c#/	8ee\)	16a\	.
.	.	.	.	.	16cc#\JJ	.
4r	.	8A/	8A/	(8cc#\	16ee\LL	.
.	.	.	.	.	16cc#\	.
.	.	8c#/J	8c#/J	8a\J)	16a\	.
.	.	.	.	.	16ee\JJ	.
=98	=98	=98	=98	=98	=98	=98
8D\L	2.r	4d/	4d/	16ff\LL	16ff\LL	.
.	.	.	.	16dd\	16dd\	.
8F\	.	.	.	16a\	16a\	.
.	.	.	.	16dd\JJ	16dd\JJ	.
8D\	.	4r	4r	16ff\LL	16ff\LL	.
.	.	.	.	16dd\	16dd\	.
8F\	.	.	.	16a\	16a\	.
.	.	.	.	16dd\JJ	16dd\JJ	.
8D\	.	4r	4r	16ff\LL	16ff\LL	.
.	.	.	.	16dd\	16dd\	.
8F\J	.	.	.	16a\	16a\	.
.	.	.	.	16dd\JJ	16dd\JJ	.
=99	=99	=99	=99	=99	=99	=99
4GG#/	2.r	2.r	2.r	(8ff\L	16ff\LL	7
.	.	.	.	.	16dd\	.
.	.	.	.	8dd\)	16bn\	.
.	.	.	.	.	16dd\JJ	.
4GG#/	.	.	.	(8bn\	16ff\LL	.
.	.	.	.	.	16dd\	.
.	.	.	.	8dd\)	16b\	.
.	.	.	.	.	16dd\JJ	.
*	*	*	*	*strophe	*	*
*	*	*	*	*^	*	*
*	*	*	*	*S/S	*S/A	*	*
4GG#/	.	.	.	(8gg#\	(8gg\	16ff\LL	.
.	.	.	.	.	.	16dd\	.
*	*	*	*	*S/fin	*S/fin	*	*
*	*	*	*	*v	*v	*	*
*	*	*	*	*S-	*	*
.	.	.	.	8b\J)	16b\	.
.	.	.	.	.	16dd\JJ	.
=100	=100	=100	=100	=100	=100	=100
4GG#/	2.r	2.r	2.r	(8g#\L	16ee\LL	6
.	.	.	.	.	16dd\	.
.	.	.	.	8bn\)	16bn\	.
.	.	.	.	.	16dd\JJ	.
4GG#/	.	.	.	(8ee\	16ee\LL	.
.	.	.	.	.	16dd\	.
.	.	.	.	8dd\)	16b\	.
.	.	.	.	.	16dd\JJ	.
4GG#/	.	.	.	(8cc#\	16ee\LL	.
.	.	.	.	.	16dd\	.
.	.	.	.	8b\J)	16b\	.
.	.	.	.	.	16ff\JJ	.
=101	=101	=101	=101	=101	=101	=101
4AA/	2.r	2.r	2.r	16cc#\LL	16ee\LL	#
.	.	.	.	16a\	16cc#\	.
.	.	.	.	16cc#\	16a\	.
.	.	.	.	16ee\JJ	16cc#\JJ	.
4AA/	.	.	.	16cc#\LL	16ee\LL	.
.	.	.	.	16a\	16cc#\	.
.	.	.	.	16cc#\	16a\	.
.	.	.	.	16ee\JJ	16cc#\JJ	.
4AA/	.	.	.	16cc#\LL	16ee\LL	.
.	.	.	.	16a\	16cc#\	.
.	.	.	.	16cc#\	16a\	.
.	.	.	.	16ee\JJ	16ee\JJ	.
=102	=102	=102	=102	=102	=102	=102
8D\L	2.r	2.r	2.r	4ff\	4ff\	.
8d\	.	.	.	.	.	.
8D\	.	.	.	16r	16r	.
.	.	.	.	16aa\LL	16aa\LL	.
8d\	.	.	.	16aa\	16aa\	.
.	.	.	.	16ff\JJ	16ff\JJ	.
8D\	.	.	.	16ff\LL	16ff\LL	.
.	.	.	.	16dd\	16dd\	.
8d\J	.	.	.	16dd\	16dd\	.
.	.	.	.	16ee-\JJ	16ee-\JJ	.
=103	=103	=103	=103	=103	=103	=103
8GG/L	2.r	2.r	2.r	4ee-\	4ee-\	b6
8G/	.	.	.	.	.	.
8GG/	.	.	.	16r	16r	.
.	.	.	.	16gg\LL	16gg\LL	.
8G/	.	.	.	16gg\	16gg\	.
.	.	.	.	16ee-\JJ	16ee-\JJ	.
8GG/	.	.	.	16ee-\LL	16ee-\LL	.
.	.	.	.	16dd\	16dd\	.
8G/J	.	.	.	16dd\	16dd\	.
.	.	.	.	16cc#\JJ	16cc#\JJ	.
=104	=104	=104	=104	=104	=104	=104
8AA\L	2.r	2.r	2.r	4cc#\	4cc#\	#
8A\	.	.	.	.	.	.
8AA\	.	.	.	16r	16r	.
.	.	.	.	16a/LL	16a/LL	.
8A\	.	.	.	16a/	16a/	.
.	.	.	.	16bn/JJ	16b/JJ	.
8AA\	.	.	.	16b\LL	16b\LL	.
.	.	.	.	16cc#\	16cc#\	.
8A\J	.	.	.	16cc#\	16cc#\	.
.	.	.	.	16dd\JJ	16dd\JJ	.
=105	=105	=105	=105	=105	=105	=105
8AA\L	2.r	2.r	2.r	16dd\LL	16dd\LL	6 4
.	.	.	.	16ee\	16ee\	.
8A\	.	.	.	16ee\	16ee\	.
.	.	.	.	16ff\JJ	16ff\JJ	.
8AA\	.	.	.	16ff\LL	16ff\LL	.
.	.	.	.	16gg\	16gg\	.
8A\	.	.	.	16gg\	16gg\	.
.	.	.	.	16aa\JJ	16aa\JJ	.
8AA\	.	.	.	16aa\LL	16aa\LL	#
.	.	.	.	16bbn\	16bb\	.
8A\J	.	.	.	16bb\	16bb\	.
.	.	.	.	16ccc#\JJ	16ccc#\JJ	.
=106	=106	=106	=106	=106	=106	=106
8D\L	2.r	2.r	2.r	4ddd\	4ddd\	.
8d\	.	.	.	.	.	.
8D\	.	.	.	16r	16r	.
.	.	.	.	16ff\LL	16ff\LL	.
8d\	.	.	.	16ee\	16ee\	.
.	.	.	.	16dd\JJ	16dd\JJ	.
8D\	.	.	.	16aa\LL	16aa\LL	.
.	.	.	.	16ff\	16ff\	.
8d\J	.	.	.	16ee\	16ee\	.
.	.	.	.	16dd\JJ	16dd\JJ	.
=107	=107	=107	=107	=107	=107	=107
8D\L	2.r	2.r	2.r	16a\LL	16a\LL	.
.	.	.	.	16ff\	16ff\	.
8d\	.	.	.	16ee\	16ee\	.
.	.	.	.	16dd\JJ	16dd\JJ	.
8D\	.	.	.	16aa\LL	16aa\LL	.
.	.	.	.	16ff\	16ff\	.
8d\	.	.	.	16ee\	16ee\	.
.	.	.	.	16dd\JJ	16dd\JJ	.
8D\	.	.	.	16aa\LL	16aa\LL	.
.	.	.	.	16ff\	16ff\	.
8d\J	.	.	.	16ee\	16ee\	.
.	.	.	.	16dd\JJ	16dd\JJ	.
=108	=108	=108	=108	=108	=108	=108
4D\	2.r	2.r	2.r	16a\LL	16a\LL	.
.	.	.	.	16ff\	16ff\	.
.	.	.	.	16ee\	16ee\	.
.	.	.	.	16dd\JJ	16dd\JJ	.
4A\	.	.	.	4.eet\	4.eet\	4
4AA/	.	.	.	.	.	#
.	.	.	.	8dd\	8dd\	.
=109	=109	=109	=109	=109	=109	=109
8D\L	4a\	8ff\	8dd\	8dd\	8dd\	.
8E\	.	4aa\	4ddd\	4ddd\	4ddd\	.
8F\	4a\	.	.	.	.	.
8E\	.	4ff\	4aa\	4aa\	4aa\	.
8F\	4a\	.	.	.	.	.
8D\J	.	8a/	[8dd\	[8dd\	[8dd\	.
=110	=110	=110	=110	=110	=110	=110
8G\L	4g\	8b-\	8dd\]	8dd\]	8dd\]	.
8A\	.	4bb-\	4ddd\	4ddd\	4ddd\	.
8B-\	4g\	.	.	.	.	6
8A\	.	4gg\	4bb-\	4bb-\	4bb-\	.
8B-\	4g\	.	.	.	.	.
8G\J	.	8dd\	[8gg\	[8gg\	[8gg\	.
=111	=111	=111	=111	=111	=111	=111
8C\L	4g\	8ee\	8gg\]	8gg\]	8gg\]	.
8D\	.	4gg\	4ccc\	4ccc\	4ccc\	.
8E\	4g\	.	.	.	.	6
8D\	.	4ee\	4gg\	4gg\	4gg\	.
8E\	4g\	.	.	.	.	.
8C\J	.	8g/	[8cc\	[8cc\	[8cc\	.
=112	=112	=112	=112	=112	=112	=112
8F\L	4f\	8a/	8cc\]	8cc\]	8cc\]	.
8G\	.	4aa\	4ccc\	4ccc\	4ccc\	.
8A\	4f\	.	.	.	.	6
8G\	.	4ff\	4aa\	4aa\	4aa\	.
8A\	4f\	.	.	.	.	.
8F\J	.	8cc\	[8ff\	[8ff\	[8ff\	.
=113	=113	=113	=113	=113	=113	=113
8BB-/L	4f\	8dd\	8ff\]	8ff\]	8ff\]	.
8C/	.	4ff\	4bb-\	4bb-\	4bb-\	.
8D/	4f\	.	.	.	.	6
8C/	.	4dd\	4ff\	4ff\	4ff\	.
8D/	4f\	.	.	.	.	.
8BB-/J	.	8f/	[8b-\	[8b-\	[8b-\	.
=114	=114	=114	=114	=114	=114	=114
8E\L	4e\	8g/	8b-\]	8b-\]	8b-\]	.
8F\	.	4gg\	4bb-\	4bb-\	4bb-\	.
8G\	4e\	.	.	.	.	6
8F\	.	4ee\	4gg\	4gg\	4gg\	.
8G\	4e\	.	.	.	.	.
8E\J	.	8g/	[8ee\	[8ee\	[8ee\	.
=115	=115	=115	=115	=115	=115	=115
8AA/L	4e\	8cc#\	8ee\]	8ee\]	8ee\]	#
8BBn/	.	4ee\	4aa\	4aa\	4aa\	.
8C#/	4e\	.	.	.	.	6
8BB/	.	4cc#\	4ee\	4ee\	4ee\	.
8C#/	4e\	.	.	.	.	.
8BB/J	.	[8e/	[8a/	[8a/	[8a/	.
=116	=116	=116	=116	=116	=116	=116
8AA/L	4e\	8e/]	8a/]	8a/]	8a/]	#
8BBn/	.	4ee\	4aa\	4aa\	4aa\	.
8C#/	4e\	.	.	.	.	6
8AA/	.	4cc#\	4gg\	4gg\	4gg\	.
8BB/	4e\	.	.	.	.	.
8C#/J	.	[8a/	16ff\LL	16ff\LL	16ff\LL	.
.	.	.	16ee\JJ	16ee\JJ	16ee\JJ	.
=117	=117	=117	=117	=117	=117	=117
4D\	4d\	8a\L]	8ff\L	8ff\L	8ff\L	.
.	.	(8dd\	(8dd\	(8dd\	(8dd\	.
4r	4r	8cc#\)	8cc#\)	8cc#\)	8cc#\)	.
.	.	(8ccn\	(8ccn\	(8ccn\	(8ccn\	.
4r	4r	8bn\)	8bn\)	8bn\)	8bn\)	.
.	.	(8b-\J	(8b-\J	(8b-\J	(8b-\J	.
=118	=118	=118	=118	=118	=118	=118
4AA/	4c#\	8a\L)	8a\L)	8a\L)	8a\L)	#
.	.	(8aa\	(8aa\	(8aa\	(8aa\	.
4r	4r	8gg#\)	8gg#\)	8gg#\)	8gg#\)	.
.	.	(8ggn\	(8ggn\	(8ggn\	(8ggn\	.
4r	4r	8ff#\)	8ff#\)	8ff#\)	8ff#\)	.
.	.	(8ffn\J	(8ffn\J	(8ffn\J	(8ffn\J	.
=119	=119	=119	=119	=119	=119	=119
8A\L	8cc#\L	8ee\L)	8ee\L)	8ee\L)	8ee\L)	#
16A\L	8a\	16dd\L	16dd\L	16dd\L	16dd\L	.
16G\JJ	.	16cc#\JJ	16cc#\JJ	16cc#\JJ	16cc#\JJ	.
8F\L	8a\	8dd/L	8dd/L	8dd/L	8dd/L	6
8D\J	8f\	8f/J	8f/J	8f/J	8f/J	.
8A\L	8c#\	8e/L	8e/L	8e/L	8e/L	5 4
8AA\J	8a\J	8cc#/J	8cc#/J	8cc#/J	8cc#/J	#
=120	=120	=120	=120	=120	=120	=120
2.D;\	2.f;\	2.dd;\	2.dd;\	2.dd;\	2.dd;\	.
==|!	==|!	==|!	==|!	==|!	==|!	==|!
*-	*-	*-	*-	*-	*-	*-
!!!CDT: 1678/3/4/-1741/7/28
!!!OCY: Italia
!!!ODE: Count Wenzeslaus von Morzin of Bohemia; Count Wenceslas of Morzin
!!!ODT: 1725///
!!!OPC: Venezia; Venice
!!!AGN: concerto
!!!AST: baroque
!!!AMT: simple triple
!!!PPR: Michel-Charles Le Ce`ne
!!!PC#: Le Cene No. 521
!!!PDT: 1725///
!!!PPP: Amsterdam
!!!SCT: RV 236
!!!SMA1: The cooperation of the following libraries is gratefully acknowledged:
!!!SMA2: Saechsische Landesbibliothek, Dresden; Biblioteca Nazionale
!!!SMA3: Universitaria, Turin; Henry Watson Music Library, Manchester.
!!!YOR: New York: Dover Publications, Inc. 1995
!!!AIN: cello cemba viola violn
!!!EEV: 1.0
!!!RDT: 1994/5/4/
!!!YER: 1996/10/31/
!!!YEP: Center for Computer Assisted Research in the Humanities
!!!YEN: United States of America
!!!EFL: 1/3
!!!ENC: Edmund Correia, Jr.
!!!EED: Eleanor Selfridge-Field
